images/icon/comment.svg

<svg height="140" viewBox="0 0 140 140" width="140" xmlns="http://www.w3.org/2000/svg"><path d="m7 0a7 7 0 0 0 -5.968 10.657l-1 2.668a.5.5 0 0 0 .468.675.463.463 0 0 0 .09-.008l3.493-.636a6.9 6.9 0 0 0 2.917.644 7 7 0 0 0 0-14zm-2.5 7.052a1 1 0 0 1 -1 .948h-.053a1 1 0 1 1 1.053-.948zm3.5 0a1 1 0 0 1 -1 .948h-.053a1 1 0 0 1 -.947-1.054 1 1 0 0 1 1.742-.615.99.99 0 0 1 .258.721zm3.5 0a1 1 0 0 1 -1 .948h-.054a1 1 0 0 1 -.946-1.054 1.009 1.009 0 0 1 1.053-.946 1 1 0 0 1 .947 1.052z" transform="scale(10)"/></svg>

<svg viewBox="0 0 140 140" height="140" width="140" xmlns="http://www.w3.org/2000/svg"><g transform="matrix(10,0,0,10,0,0)"><path d="M7,0A7,7,0,0,0,1.032,10.657l-1,2.668A.5.5,0,0,0,.5,14a.463.463,0,0,0,.09-.008l3.493-.636A6.9,6.9,0,0,0,7,14,7,7,0,0,0,7,0ZM4.5,7.052A1,1,0,0,1,3.5,8L3.447,8A1,1,0,1,1,4.5,7.052Zm3.5,0A1,1,0,0,1,7,8L6.947,8A1,1,0,0,1,6,6.946a1,1,0,0,1,1.742-.615A.99.99,0,0,1,8,7.052Zm3.5,0A1,1,0,0,1,10.5,8l-.054,0A1,1,0,0,1,9.5,6.946,1.009,1.009,0,0,1,10.553,6,1,1,0,0,1,11.5,7.052Z" fill="#000" stroke="none" stroke-linecap="round" stroke-linejoin="round" stroke-width="0"></path></g></svg>
